images/Registration-Fees.svg

<svg height="512pt" viewBox="0 0 512 512" width="512pt" xmlns="http://www.w3.org/2000/svg"><path d="m256 .9375c-16.46875 0-32.96875 5.125-47.03125 15.375l-21.59375 15.6875h-115.375c-13.1875 0-24 10.8125-24 24v416c0 13.1875 10.8125 24 24 24h368c13.1875 0 24-10.8125 24-24v-416c0-13.1875-10.8125-24-24-24h-115.375l-21.59375-15.6875c-14.0625-10.25-30.5625-15.34375-47.03125-15.375zm0 16.0625c13.1875 0 26.40625 4.09375 37.6875 12.28125l3.75 2.71875 21.9375 16 6.71875 4.875c6.21875 4.46875 9.90625 11.75 9.90625 19.4375v15.6875c0 4.40625-3.59375 8-8 8h-144c-4.40625 0-8-3.59375-8-8v-15.6875c0-7.6875 3.6875-14.96875 9.90625-19.4375l6.71875-4.875 21.9375-16 3.75-2.71875c11.28125-8.1875 24.5-12.28125 37.6875-12.28125zm0 7c-13.25 0-24 10.75-24 24s10.75 24 24 24 24-10.75 24-24-10.75-24-24-24zm-184 24h96.25c-5.28125 6.875-8.25 15.4375-8.25 24.3125v7.6875h-48c-8.8125 0-16 7.1875-16 16v336c0 8.8125 7.1875 16 16 16h225.375c6.375 0 12.46875-2.5 16.9375-7.03125l54.65625-54.65625c4.53125-4.46875 7.03125-10.5625 7.03125-16.9375v-273.375c0-8.8125-7.1875-16-16-16h-48v-7.6875c0-8.875-2.96875-17.4375-8.25-24.3125h96.25c4.40625 0 8 3.59375 8 8v416c0 4.40625-3.59375 8-8 8h-368c-4.40625 0-8-3.59375-8-8v-416c0-4.40625 3.59375-8 8-8zm40 48h49.4375c3.28125 9.28125 12.15625 16 22.5625 16h144c10.40625 0 19.28125-6.71875 22.5625-16h49.4375v272h-48c-8.8125 0-16 7.1875-16 16v48h-224zm24 32c-4.40625 0-8 3.59375-8 8v16c0 4.40625 3.59375 8 8 8s8-3.59375 8-8v-16c0-4.40625-3.59375-8-8-8zm40 0c-4.40625 0-8 3.59375-8 8v16c0 4.40625 3.59375 8 8 8s8-3.59375 8-8v-16c0-4.40625-3.59375-8-8-8zm40 0c-4.40625 0-8 3.59375-8 8v16c0 4.40625 3.59375 8 8 8s8-3.59375 8-8v-16c0-4.40625-3.59375-8-8-8zm40 0c-4.40625 0-8 3.59375-8 8v16c0 4.40625 3.59375 8 8 8s8-3.59375 8-8v-16c0-4.40625-3.59375-8-8-8zm40 0c-4.40625 0-8 3.59375-8 8v16c0 4.40625 3.59375 8 8 8s8-3.59375 8-8v-16c0-4.40625-3.59375-8-8-8zm40 0c-4.40625 0-8 3.59375-8 8v16c0 4.40625 3.59375 8 8 8s8-3.59375 8-8v-16c0-4.40625-3.59375-8-8-8zm40 0c-4.40625 0-8 3.59375-8 8v16c0 4.40625 3.59375 8 8 8s8-3.59375 8-8v-16c0-4.40625-3.59375-8-8-8zm-16 80c-2.03125 0-4.09375.78125-5.65625 2.34375l-26.34375 26.34375-10.34375-10.34375c-3.125-3.125-8.1875-3.125-11.3125 0s-3.125 8.1875 0 11.3125l16 16c1.5625 1.5625 3.59375 2.34375 5.65625 2.34375s4.09375-.78125 5.65625-2.34375l32-32c3.125-3.125 3.125-8.1875 0-11.3125-1.5625-1.5625-3.625-2.34375-5.65625-2.34375zm-200 16c-4.40625 0-8 3.59375-8 8s3.59375 8 8 8h48c4.40625 0 8-3.59375 8-8s-3.59375-8-8-8zm80 0c-4.40625 0-8 3.59375-8 8s3.59375 8 8 8h32c4.40625 0 8-3.59375 8-8s-3.59375-8-8-8zm120 64c-2.03125 0-4.09375.78125-5.65625 2.34375l-26.34375 26.34375-10.34375-10.34375c-3.125-3.125-8.1875-3.125-11.3125 0s-3.125 8.1875 0 11.3125l16 16c1.5625 1.5625 3.59375 2.34375 5.65625 2.34375s4.09375-.78125 5.65625-2.34375l32-32c3.125-3.125 3.125-8.1875 0-11.3125-1.5625-1.5625-3.625-2.34375-5.65625-2.34375zm-200 16c-4.40625 0-8 3.59375-8 8s3.59375 8 8 8h112c4.40625 0 8-3.59375 8-8s-3.59375-8-8-8zm192 80h36.71875l-36.71875 36.71875zm0 0" fill="#003e6b"/></svg>

<?xml version="1.0" encoding="UTF-8"?>
<svg xmlns="http://www.w3.org/2000/svg" xmlns:xlink="http://www.w3.org/1999/xlink" width="512pt" height="512pt" viewBox="0 0 512 512" version="1.1">
<g id="surface13766926">
<path style=" stroke:none;fill-rule:nonzero;fill:rgb(0%,24.313726%,41.960785%);fill-opacity:1;" d="M 256 0.9375 C 239.53125 0.9375 223.03125 6.0625 208.96875 16.3125 L 187.375 32 L 72 32 C 58.8125 32 48 42.8125 48 56 L 48 472 C 48 485.1875 58.8125 496 72 496 L 440 496 C 453.1875 496 464 485.1875 464 472 L 464 56 C 464 42.8125 453.1875 32 440 32 L 324.625 32 L 303.03125 16.3125 C 288.96875 6.0625 272.46875 0.96875 256 0.9375 Z M 256 17 C 269.1875 17 282.40625 21.09375 293.6875 29.28125 L 297.4375 32 L 319.375 48 L 326.09375 52.875 C 332.3125 57.34375 336 64.625 336 72.3125 L 336 88 C 336 92.40625 332.40625 96 328 96 L 184 96 C 179.59375 96 176 92.40625 176 88 L 176 72.3125 C 176 64.625 179.6875 57.34375 185.90625 52.875 L 192.625 48 L 214.5625 32 L 218.3125 29.28125 C 229.59375 21.09375 242.8125 17 256 17 Z M 256 24 C 242.75 24 232 34.75 232 48 C 232 61.25 242.75 72 256 72 C 269.25 72 280 61.25 280 48 C 280 34.75 269.25 24 256 24 Z M 72 48 L 168.25 48 C 162.96875 54.875 160 63.4375 160 72.3125 L 160 80 L 112 80 C 103.1875 80 96 87.1875 96 96 L 96 432 C 96 440.8125 103.1875 448 112 448 L 337.375 448 C 343.75 448 349.84375 445.5 354.3125 440.96875 L 408.96875 386.3125 C 413.5 381.84375 416 375.75 416 369.375 L 416 96 C 416 87.1875 408.8125 80 400 80 L 352 80 L 352 72.3125 C 352 63.4375 349.03125 54.875 343.75 48 L 440 48 C 444.40625 48 448 51.59375 448 56 L 448 472 C 448 476.40625 444.40625 480 440 480 L 72 480 C 67.59375 480 64 476.40625 64 472 L 64 56 C 64 51.59375 67.59375 48 72 48 Z M 112 96 L 161.4375 96 C 164.71875 105.28125 173.59375 112 184 112 L 328 112 C 338.40625 112 347.28125 105.28125 350.5625 96 L 400 96 L 400 368 L 352 368 C 343.1875 368 336 375.1875 336 384 L 336 432 L 112 432 Z M 136 128 C 131.59375 128 128 131.59375 128 136 L 128 152 C 128 156.40625 131.59375 160 136 160 C 140.40625 160 144 156.40625 144 152 L 144 136 C 144 131.59375 140.40625 128 136 128 Z M 176 128 C 171.59375 128 168 131.59375 168 136 L 168 152 C 168 156.40625 171.59375 160 176 160 C 180.40625 160 184 156.40625 184 152 L 184 136 C 184 131.59375 180.40625 128 176 128 Z M 216 128 C 211.59375 128 208 131.59375 208 136 L 208 152 C 208 156.40625 211.59375 160 216 160 C 220.40625 160 224 156.40625 224 152 L 224 136 C 224 131.59375 220.40625 128 216 128 Z M 256 128 C 251.59375 128 248 131.59375 248 136 L 248 152 C 248 156.40625 251.59375 160 256 160 C 260.40625 160 264 156.40625 264 152 L 264 136 C 264 131.59375 260.40625 128 256 128 Z M 296 128 C 291.59375 128 288 131.59375 288 136 L 288 152 C 288 156.40625 291.59375 160 296 160 C 300.40625 160 304 156.40625 304 152 L 304 136 C 304 131.59375 300.40625 128 296 128 Z M 336 128 C 331.59375 128 328 131.59375 328 136 L 328 152 C 328 156.40625 331.59375 160 336 160 C 340.40625 160 344 156.40625 344 152 L 344 136 C 344 131.59375 340.40625 128 336 128 Z M 376 128 C 371.59375 128 368 131.59375 368 136 L 368 152 C 368 156.40625 371.59375 160 376 160 C 380.40625 160 384 156.40625 384 152 L 384 136 C 384 131.59375 380.40625 128 376 128 Z M 360 208 C 357.96875 208 355.90625 208.78125 354.34375 210.34375 L 328 236.6875 L 317.65625 226.34375 C 314.53125 223.21875 309.46875 223.21875 306.34375 226.34375 C 303.21875 229.46875 303.21875 234.53125 306.34375 237.65625 L 322.34375 253.65625 C 323.90625 255.21875 325.9375 256 328 256 C 330.0625 256 332.09375 255.21875 333.65625 253.65625 L 365.65625 221.65625 C 368.78125 218.53125 368.78125 213.46875 365.65625 210.34375 C 364.09375 208.78125 362.03125 208 360 208 Z M 160 224 C 155.59375 224 152 227.59375 152 232 C 152 236.40625 155.59375 240 160 240 L 208 240 C 212.40625 240 216 236.40625 216 232 C 216 227.59375 212.40625 224 208 224 Z M 240 224 C 235.59375 224 232 227.59375 232 232 C 232 236.40625 235.59375 240 240 240 L 272 240 C 276.40625 240 280 236.40625 280 232 C 280 227.59375 276.40625 224 272 224 Z M 360 288 C 357.96875 288 355.90625 288.78125 354.34375 290.34375 L 328 316.6875 L 317.65625 306.34375 C 314.53125 303.21875 309.46875 303.21875 306.34375 306.34375 C 303.21875 309.46875 303.21875 314.53125 306.34375 317.65625 L 322.34375 333.65625 C 323.90625 335.21875 325.9375 336 328 336 C 330.0625 336 332.09375 335.21875 333.65625 333.65625 L 365.65625 301.65625 C 368.78125 298.53125 368.78125 293.46875 365.65625 290.34375 C 364.09375 288.78125 362.03125 288 360 288 Z M 160 304 C 155.59375 304 152 307.59375 152 312 C 152 316.40625 155.59375 320 160 320 L 272 320 C 276.40625 320 280 316.40625 280 312 C 280 307.59375 276.40625 304 272 304 Z M 352 384 L 388.71875 384 L 352 420.71875 Z M 352 384 "/>
</g>
</svg>
